Obsidian/status/22s/dialog-warning-symbolic.svg

<svg height="22" width="22" xmlns="http://www.w3.org/2000/svg"><path d="m10.888588 4.094c-.524995-.029-1.0379906.283-1.436987.969l-6.2499441 11.592c-.5339952.965.0479996 2.345 1.0939902 2.345h13.1558819c.981991 0 1.902983-1.16 1.218989-2.344l-6.312943-11.531c-.398997-.646-.942992-1.003-1.468987-1.031zm.064 3.936c.543996-.017 1.047991.487 1.030991 1.032v3.938c.007.528-.470996 1-.999991 1-.527995 0-1.0069908-.472-.9999908-1v-3.938a1.0329907 1.033 0 0 1 .8129928-1c.05-.014.102999-.024.155998-.03zm.03 6.97a.999991 1 0 1 1 0 2 .999991 1 0 0 1 0-2z" fill="#bebebe" stroke-width=".999995"/></svg>

<?xml version="1.0" encoding="UTF-8" standalone="no"?>
<svg
   xmlns:dc="http://purl.org/dc/elements/1.1/"
   xmlns:cc="http://creativecommons.org/ns#"
   xmlns:rdf="http://www.w3.org/1999/02/22-rdf-syntax-ns#"
   xmlns:svg="http://www.w3.org/2000/svg"
   xmlns="http://www.w3.org/2000/svg"
   width="22"
   height="22"
   version="1.1"
   id="svg4">
  <metadata
     id="metadata10">
    <rdf:RDF>
      <cc:Work
         rdf:about="">
        <dc:format>image/svg+xml</dc:format>
        <dc:type
           rdf:resource="http://purl.org/dc/dcmitype/StillImage" />
        <dc:title></dc:title>
      </cc:Work>
    </rdf:RDF>
  </metadata>
  <defs
     id="defs8" />
  <path
     d="M 10.888588,4.094 C 10.363593,4.065 9.8505974,4.377 9.451601,5.063 L 3.2016569,16.655 C 2.6676617,17.62 3.2496565,19 4.2956471,19 H 17.451529 c 0.981991,0 1.902983,-1.16 1.218989,-2.344 L 12.357575,5.125 C 11.958578,4.479 11.414583,4.122 10.888588,4.094 Z m 0.064,3.936 c 0.543996,-0.017 1.047991,0.487 1.030991,1.032 V 13 c 0.007,0.528 -0.470996,1 -0.999991,1 -0.527995,0 -1.0069908,-0.472 -0.9999908,-1 V 9.062 a 1.0329907,1.033 0 0 1 0.8129928,-1 c 0.05,-0.014 0.102999,-0.024 0.155998,-0.03 z m 0.03,6.97 a 0.999991,1 0 1 1 0,2 0.999991,1 0 0 1 0,-2 z"
     style="color:#bebebe;overflow:visible;fill:#bebebe;fill-opacity:1;stroke-width:0.99999547;marker:none"
     overflow="visible"
     id="path2" />
</svg>
